X: 25655
T: Martin Rochford's
R: reel
M: 4/4
K: Cmajor
|:G2 DE GABd|dBeB dBAB|GEDE GBeB|1 dBAc BEEF:|2 dBAc BEE||
g3 g fedA|Beed Beef|g2 bg fedB|dBAc BEEf|
g2 ag fedA|Beed e3 f|g2bg faaf|dBAd BEEF||

